X:1
T:Title
%%score { ( 1 3 ) | ( 2 4 ) }
L:1/8
Q:1/4=120
M:3/4
K:G
V:1 treble nm="Grand Piano"
V:3 treble 
V:2 treble 
V:4 treble 
V:1
 D4 G2 | c4 B2 | [DGB]4 [CFA]2 | [B,G]6 | [CGc]4 B2 | e4 d2 | d4 ^c2 | [Fd]6 | G4 B2 | d4 [DB]2 | %10
w: Ira~D.~Sankey *||||||||||
 [DB]4 [CFA]2 | [B,G]6 | [CE]4 [Ge]2 | d4 B2 | B4 z2 | [B,G]6 | [Fd]4 [FA]2 | [Fd]4 [Fe]2 | d4 d2 | %19
w: |||||||||
 B6 | c2 z2 z2 | d2 B2 [DG]2 | B4 z2 | [B,G]6 |] %24
w: |||||
V:2
 [G,B,]4 [G,B,D]2 | [G,EG]4 [G,DG]2 | D,4 D,2 | G,6 | E,4[K:treble] [G,DG]2 | [CG]4 [B,DG]2 | %6
 [A,EG]4 [A,EG]2 | D4 z2 | [G,B,]4 [G,DG]2 | [G,B,G]4[K:bass] [G,,G,]2 | [D,G,]4 D,2 | E,6 | %12
 z2[K:treble] c2[K:bass] [C,C]2 | [G,B,G]4 [G,D]2 | D2 z2 D,2 | G,6 | [D,A,]4 [D,D]2 | %17
 [D,A,]4 [D,C]2 | [G,B,G]4 [G,B,G]2 | [G,DG]6 | [E,C]2 [D,B,]2 [C,C]2 | B,2 z2[K:bass] z2 | %22
 z2 D2 D,2 | G,,6 |] %24
V:3
 x6 | x6 | x6 | x6 | x6 | x6 | x6 | z2 z2 C2 | x6 | x6 | x6 | x6 | G2 z2 z2 | x6 | z2 E2 [CFA]2 | %15
 x6 | x6 | x6 | x6 | x6 | G2- [Gd]2 [Ge]2 | x6 | [DG]2 z2 [CFA]2 | x6 |] %24
V:4
 x6 | x6 | x6 | x6 | x4[K:treble] x2 | x6 | x6 | D,6 | x6 | x4[K:bass] x2 | x6 | x6 | %12
 C,4[K:treble][K:bass] z2 | x6 | D,4 z2 | x6 | x6 | x6 | x6 | x6 | x6 | %21
 [G,G]2- [G,DG]2[K:bass] B,,2 | D,4 z2 | x6 |] %24

